X: 2
T: Frailach
R: hornpipe
M: 4/4
L: 1/8
K: Gmaj
|"Em"BEEB BEBE|"A,m"A2AG ABG2|"G,"GBdB GBdB|"D7"A2AG "G,"ABG2| "B,7"GAAG GFF=F|"Em"E4 EAG2|"B,7"GAAG GFF=F|"Em"E6:| |:B2 |"Em"e6 dc|B6 B2|eBeB e2dc|B6 B2| e6 d2|f6 g2|eBeB "A,m"e2dc|"Em"B4 B2| "G,"BcBc BcBc|BcBc "A,m"B2A2|"A,m"AEEA AEEA|AGAB "G,"A2G2| "B,7"GAAG GFF=F|"Em"E4 EAG2|"B,7"GAAG GFF=F|1 "Em"E2E2 G2:|2 "Em"E2z2 e2||


Tune 445	Setting 445

